Resources/Private/Icons/solid/arrows-to-eye.svg

<svg xmlns="http://www.w3.org/2000/svg" viewBox="0 0 640 512"><!--! Font Awesome Free 6.1.1 by @fontawesome - https://fontawesome.com License - https://fontawesome.com/license/free (Icons: CC BY 4.0, Fonts: SIL OFL 1.1, Code: MIT License) Copyright 2022 Fonticons, Inc. --><path d="M15.03 15.03C24.4 5.657 39.6 5.657 48.97 15.03L112 78.06V40C112 26.75 122.7 15.1 136 15.1C149.3 15.1 160 26.75 160 40V136C160 149.3 149.3 160 136 160H40C26.75 160 15.1 149.3 15.1 136C15.1 122.7 26.75 112 40 112H78.06L15.03 48.97C5.657 39.6 5.657 24.4 15.03 15.03V15.03zM133.5 243.9C158.6 193.6 222.7 112 320 112C417.3 112 481.4 193.6 506.5 243.9C510.3 251.6 510.3 260.4 506.5 268.1C481.4 318.4 417.3 400 320 400C222.7 400 158.6 318.4 133.5 268.1C129.7 260.4 129.7 251.6 133.5 243.9V243.9zM320 320C355.3 320 384 291.3 384 256C384 220.7 355.3 192 320 192C284.7 192 256 220.7 256 256C256 291.3 284.7 320 320 320zM591 15.03C600.4 5.657 615.6 5.657 624.1 15.03C634.3 24.4 634.3 39.6 624.1 48.97L561.9 112H600C613.3 112 624 122.7 624 136C624 149.3 613.3 160 600 160H504C490.7 160 480 149.3 480 136V40C480 26.75 490.7 15.1 504 15.1C517.3 15.1 528 26.75 528 40V78.06L591 15.03zM15.03 463L78.06 400H40C26.75 400 15.1 389.3 15.1 376C15.1 362.7 26.75 352 40 352H136C149.3 352 160 362.7 160 376V472C160 485.3 149.3 496 136 496C122.7 496 112 485.3 112 472V433.9L48.97 496.1C39.6 506.3 24.4 506.3 15.03 496.1C5.657 487.6 5.657 472.4 15.03 463V463zM528 433.9V472C528 485.3 517.3 496 504 496C490.7 496 480 485.3 480 472V376C480 362.7 490.7 352 504 352H600C613.3 352 624 362.7 624 376C624 389.3 613.3 400 600 400H561.9L624.1 463C634.3 472.4 634.3 487.6 624.1 496.1C615.6 506.3 600.4 506.3 591 496.1L528 433.9z"/></svg>

<svg xmlns="http://www.w3.org/2000/svg" viewBox="0 0 640 512"><!--! Font Awesome Free 6.2.0 by @fontawesome - https://fontawesome.com License - https://fontawesome.com/license/free (Icons: CC BY 4.0, Fonts: SIL OFL 1.1, Code: MIT License) Copyright 2022 Fonticons, Inc. --><path d="M15 15C24.4 5.7 39.6 5.7 49 15l63 63V40c0-13.3 10.7-24 24-24s24 10.7 24 24v96c0 13.3-10.7 24-24 24H40c-13.3 0-24-10.7-24-24s10.7-24 24-24H78.1L15 49C5.7 39.6 5.7 24.4 15 15zM133.5 243.9C158.6 193.6 222.7 112 320 112s161.4 81.6 186.5 131.9c3.8 7.6 3.8 16.5 0 24.2C481.4 318.4 417.3 400 320 400s-161.4-81.6-186.5-131.9c-3.8-7.6-3.8-16.5 0-24.2zM320 320c35.3 0 64-28.7 64-64s-28.7-64-64-64s-64 28.7-64 64s28.7 64 64 64zM591 15c9.4-9.4 24.6-9.4 33.9 0s9.4 24.6 0 33.9l-63 63H600c13.3 0 24 10.7 24 24s-10.7 24-24 24H504c-13.3 0-24-10.7-24-24V40c0-13.3 10.7-24 24-24s24 10.7 24 24V78.1l63-63zM15 497c-9.4-9.4-9.4-24.6 0-33.9l63-63H40c-13.3 0-24-10.7-24-24s10.7-24 24-24h96c13.3 0 24 10.7 24 24v96c0 13.3-10.7 24-24 24s-24-10.7-24-24V433.9L49 497c-9.4 9.4-24.6 9.4-33.9 0zm576 0l-63-63V472c0 13.3-10.7 24-24 24s-24-10.7-24-24V376c0-13.3 10.7-24 24-24h96c13.3 0 24 10.7 24 24s-10.7 24-24 24H561.9l63 63c9.4 9.4 9.4 24.6 0 33.9s-24.6 9.4-33.9 0z"/></svg>
